!!!COM: Palestrina, Giovanni Perluigi da
!!!OPR: Papae Marcelli
!!!OTL: Benedictus
**kern	**kern	**kern	**kern
*Itenor	*Itenor	*Icalto	*Icant
!Tenor 2	!Tenor 1	!Altus	!Cantus
*clefGv2	*clefGv2	*clefG2	*clefG2
*k[]	*k[]	*k[]	*k[]
*C:ion	*C:ion	*C:ion	*C:ion
*M4/2	*M4/2	*M4/2	*M4/2
=1	=1	=1	=1
0r	0g	0r	0g
=2	=2	=2	=2
0r	1f#	0r	1a
.	2.g	.	2.b
.	4f	.	4a
=3	=3	=3	=3
1r	4d	0r	4b
.	4e	.	4cc
.	2f	.	2.dd
[1G	1e	.	.
.	.	.	4cc
.	.	.	[2cc
=4	=4	=4	=4
1G]	1d	0g	2cc]
.	.	.	2b
1c	2.e	.	[1cc
.	4d	.	.
=5	=5	=5	=5
1A	1c	1f#	2cc]
.	.	.	4b
.	.	.	4a
2.G	1d	2.g	2.b
4A	.	4f	4cc
=6	=6	=6	=6
4B	0r	4d	1dd
4c	.	4e	.
2.d	.	2f	.
.	.	1e	[1g
4c	.	.	.
[2c	.	.	.
=7	=7	=7	=7
2c]	1r	1d	0g]
2B	.	.	.
[1c	[1g	[1e	.
=8	=8	=8	=8
2c]	1g]	2e]	0r
2B	.	2d	.
1A	1f#	2c	.
.	.	[2cc	.
=9	=9	=9	=9
1G	2.g	2cc]	0dd
.	.	4b-	.
.	4f	4a	.
1r	4d	2b-	.
.	4e	.	.
.	[2f	[2a	.
=10	=10	=10	=10
0r	4f]	4a]	1cc
.	4e	4g	.
.	4e	1g	.
.	8d	.	.
.	8c	.	.
.	4B	.	2.dd
.	4c	.	.
.	[2d	4f	.
.	.	4e	4cc
=11	=11	=11	=11
1r	4d]	1f	4a
.	4c	.	4b
.	4A	.	1cc
.	4B	.	.
[1g	1c	1e	.
.	.	.	4b
.	.	.	4a
=12	=12	=12	=12
1g]	1G	1d	1b
1f#	1d	2r	1a
.	.	[2d	.
=13	=13	=13	=13
2.g	1G	2d]	2.b
.	.	2e	.
4f	.	.	4cc
4d	1r	4f	2dd
4e	.	4g	.
2f	.	[2a	[2cc
=14	=14	=14	=14
1e	0r	4a]	4cc]
.	.	4g	4b
.	.	1g	2g
1d	.	.	1a
.	.	2f#	.
=15	=15	=15	=15
1G	2r	1g	[0g
.	2d	.	.
2r	4e	1r	.
.	4d	.	.
2c	4e	.	.
.	4f	.	.
=16	=16	=16	=16
4e	2g	0r	1g]
4d	.	.	.
4e	2c	.	.
4f	.	.	.
2g	1e	.	2r
2c	.	.	2g
=17	=17	=17	=17
1f	2.d	1r	4a
.	.	.	4g
.	.	.	4a
.	4c	.	4b
1e	2A	2r	2cc
.	2c	2c	2g
=18	=18	=18	=18
2d	1G	4d	1b
.	.	4c	.
2G	.	4d	.
.	.	4e	.
4A	1r	2f	1a
4G	.	.	.
4A	.	2c	.
4B	.	.	.
=19	=19	=19	=19
2c	1r	2e	2g
2A	.	2f	2.cc
1c	2r	1e	.
.	.	.	4b
.	2c	.	[2a
=20	=20	=20	=20
1B	4d	1r	2a]
.	4c	.	.
.	4d	.	2g#
.	4e	.	.
1A	2f	2r	[1a
.	2e	2c	.
=21	=21	=21	=21
1r	2.f	4d	0a]
.	.	4c	.
.	.	4d	.
.	4e	4e	.
2r	2d	2f	.
2c	2A	2e	.
=22	=22	=22	=22
4d	0a	2.f	1r
4c	.	.	.
4d	.	.	.
4e	.	4e	.
2f	.	2d	2r
2e	.	2A	2cc
=23	=23	=23	=23
2.f	1.d	[0a	4dd
.	.	.	4cc
.	.	.	4dd
4e	.	.	4ee
2d	.	.	2ff
2c#	2e	.	[2ee
=24	=24	=24	=24
1d	2.f	0a]	4ee]
.	.	.	4dd
.	.	.	1dd
.	8e	.	.
.	8d	.	.
2A	1e	.	.
2A	.	.	2cc#
=25	=25	=25	=25
4B	1d	2r	1dd
4A	.	.	.
4B	.	2g	.
4c	.	.	.
1d	1r	2.f	2r
.	.	.	2dd
.	.	4d	.
=26	=26	=26	=26
1A	1r	2e	2.cc
.	.	2f	.
.	.	.	4a
1r	2r	2g	2b
.	2g	2e	2g
=27	=27	=27	=27
0r	2.f	2.d	4a
.	.	.	4g
.	.	.	4a
.	4d	8c	4b
.	.	8B	.
.	2e	2A	1cc
.	2f	[2a	.
=28	=28	=28	=28
0r	2g	4a]	2b
.	.	4g	.
.	2e	1g	4a
.	.	.	4g
.	1d	.	2a
.	.	2f	2a
=29	=29	=29	=29
1r	2r	1e	0g
.	2c	.	.
2r	2.B	1d	.
2g	.	.	.
.	4G	.	.
=30	=30	=30	=30
2.f	2A	1r	0r
.	2B	.	.
4d	.	.	.
2e	2c	2r	.
2f	2A	2cc	.
=31	=31	=31	=31
2g	1G	2.b	2r
2e	.	.	2gg
.	.	4g	.
1d	1r	2a	2.ff
.	.	2b	.
.	.	.	4dd
=32	=32	=32	=32
2c	1r	2cc	2ee
2d	.	2a	2ff
4e	2r	1g	2gg
4d	.	.	.
4e	2c	.	2ee
4f	.	.	.
=33	=33	=33	=33
1g	2.B	2r	1dd
.	.	2g	.
.	4G	.	.
1r	2A	2.f	2r
.	2B	.	2dd
.	.	4d	.
=34	=34	=34	=34
0r	2c	2e	2.cc
.	2A	2f	.
.	.	.	4a
.	2G	2g	2.b
.	2g	2e	.
.	.	.	4cc
=35	=35	=35	=35
2r	2.f	2d	4dd
.	.	.	4ee
2d	.	2a	2ff
.	4d	.	.
2.c	2e	2cc	2ee
.	[2a	2cc	2ee
4A	.	.	.
=36	=36	=36	=36
2B	4a]	1b	1dd
.	4g	.	.
2G	1g	.	.
[1d	.	1a	2r
.	4f	.	2dd
.	4e	.	.
=37	=37	=37	=37
1d]	2f#	1a	2dd
.	2f#	.	2dd
2.e	2g	1g	2b
.	[2c	.	[2ee
4d	.	.	.
=38	=38	=38	=38
2c	2c]	[0g	2ee]
2B	2d	.	2dd
1c	1e	.	1cc
=39	=39	=39	=39
1c	1e	0g]	1cc
1G	1d	.	1b
==	==	==	==
*-	*-	*-	*-
!!!CDT: 1525/^1526/-1594/2/2
!!!OCY: Italia
!!!AGN: Mass (Free)
!!!AST: renaissance, vocal
!!!ASW: Chanson 1533 (Lupi or Cadéac)
!!!PWK: Masses, Book 2
!!!RNB: Cadence finals: G
!!!YOR: Le Opere Complete, v. 4, p. 167
!!!YOO: Rome, Italy: Fratelli Scalera
!!!END: 1992//
!!!EED: John Miller
!!!YEC: Copyright 2000, John Miller
!!!YEN: United States of America
!!!YEM: Rights to all derivative electronic formats reserved.
!!!YEM: Refer to licensing agreement for further details.
!!!YEM: This file must be accompanied by the licensing agreement.
!!!YEM: A copy of the licensing agreement may be found at http://www.music-cog.ohio-state.edu/HumdrumDatabases/Palestrina/license.txt
!!!EMD: converted to Humdrum by Bret Aarden
